assets/salario.svg

<svg version="1.1" id="Layer_1" xmlns="http://www.w3.org/2000/svg" xmlns:xlink="http://www.w3.org/1999/xlink" x="0px" y="0px"
	 width="100%" viewBox="0 0 512 512" enable-background="new 0 0 512 512" xml:space="preserve">
<path fill="#000000" opacity="1.000000" stroke="none" 
	d="
M301.000000,513.000000 
	C200.691025,513.000000 100.882042,513.000000 1.036533,513.000000 
	C1.036533,342.399323 1.036533,171.798660 1.036533,1.098988 
	C171.558990,1.098988 342.118042,1.098988 512.838562,1.098988 
	C512.838562,171.666550 512.838562,342.333252 512.838562,513.000000 
	C442.465302,513.000000 371.982635,513.000000 301.000000,513.000000 
M167.001022,494.499603 
	C172.770752,496.378082 178.544144,498.245361 184.309570,500.136993 
	C205.746811,507.170441 227.927750,509.823730 250.309906,510.888428 
	C258.054413,511.256805 265.879272,510.568634 273.633453,509.942505 
	C283.479156,509.147491 293.410370,508.568573 303.093689,506.764099 
	C331.069305,501.550903 357.576385,492.109009 382.369446,477.940796 
	C410.066132,462.113342 434.000549,441.830017 454.143372,417.198334 
	C468.784943,399.293945 480.674164,379.621613 489.962799,358.355286 
	C502.690094,329.216248 509.185669,298.667175 510.906189,267.084930 
	C511.925964,248.366669 510.202759,229.699371 506.858582,211.276749 
	C500.554871,176.550049 487.486603,144.468231 467.694244,115.228142 
	C454.399048,95.586609 438.729492,78.093750 420.487854,62.788635 
	C407.044434,51.509266 392.759857,41.571968 377.416718,33.231880 
	C343.033539,14.542223 305.970276,4.783638 267.041382,3.287696 
	C250.107956,2.636987 232.863602,3.806823 216.100372,6.371427 
	C186.004974,10.975710 157.576111,21.127846 131.060013,36.411247 
	C105.663841,51.049145 83.182518,69.261681 64.203690,91.517006 
	C48.137287,110.357109 35.083103,131.174484 24.871365,153.900513 
	C11.600754,183.433990 4.682322,214.403198 3.290457,246.460464 
	C2.613362,262.055237 4.462256,277.832611 6.058414,293.436218 
	C8.518700,317.487305 15.698915,340.383820 25.781862,362.255951 
	C39.867813,392.811462 58.977402,419.794678 83.951782,442.619934 
	C96.290695,453.897064 108.937500,464.741547 123.535088,472.820374 
	C137.458176,480.525909 152.025345,487.067596 167.001022,494.499603 
z"/>
<path fill="#50AF00" opacity="1.000000" stroke="none" 
	d="
M166.655197,494.310242 
	C152.025345,487.067596 137.458176,480.525909 123.535088,472.820374 
	C108.937500,464.741547 96.290695,453.897064 83.951782,442.619934 
	C58.977402,419.794678 39.867813,392.811462 25.781862,362.255951 
	C15.698915,340.383820 8.518700,317.487305 6.058414,293.436218 
	C4.462256,277.832611 2.613362,262.055237 3.290457,246.460464 
	C4.682322,214.403198 11.600754,183.433990 24.871365,153.900513 
	C35.083103,131.174484 48.137287,110.357109 64.203690,91.517006 
	C83.182518,69.261681 105.663841,51.049145 131.060013,36.411247 
	C157.576111,21.127846 186.004974,10.975710 216.100372,6.371427 
	C232.863602,3.806823 250.107956,2.636987 267.041382,3.287696 
	C305.970276,4.783638 343.033539,14.542223 377.416718,33.231880 
	C392.759857,41.571968 407.044434,51.509266 420.487854,62.788635 
	C438.729492,78.093750 454.399048,95.586609 467.694244,115.228142 
	C487.486603,144.468231 500.554871,176.550049 506.858582,211.276749 
	C510.202759,229.699371 511.925964,248.366669 510.906189,267.084930 
	C509.185669,298.667175 502.690094,329.216248 489.962799,358.355286 
	C480.674164,379.621613 468.784943,399.293945 454.143372,417.198334 
	C434.000549,441.830017 410.066132,462.113342 382.369446,477.940796 
	C357.576385,492.109009 331.069305,501.550903 303.093689,506.764099 
	C293.410370,508.568573 283.479156,509.147491 273.633453,509.942505 
	C265.879272,510.568634 258.054413,511.256805 250.309906,510.888428 
	C227.927750,509.823730 205.746811,507.170441 184.309570,500.136993 
	C178.544144,498.245361 172.770752,496.378082 166.655197,494.310242 
M186.454071,191.997223 
	C186.288147,192.467056 186.119720,192.936035 185.956696,193.406860 
	C172.919800,231.053650 194.870499,268.188995 234.300476,274.942291 
	C237.452560,275.482178 237.454498,277.109253 237.448212,279.399384 
	C237.416718,290.897705 237.446854,302.396240 237.422394,313.894592 
	C237.418335,315.801788 237.251480,317.708618 237.145432,319.916107 
	C224.572617,319.916107 212.590103,319.709534 200.618942,319.989319 
	C192.751404,320.173218 187.185379,324.462463 183.858902,331.496246 
	C180.541840,338.510162 181.660919,345.184540 186.273849,351.200195 
	C190.391876,356.570374 196.065979,358.963409 202.827576,358.938934 
	C214.271530,358.897522 225.715744,358.927551 237.095520,358.927551 
	C238.538330,374.458374 244.523163,382.667236 255.285446,382.806091 
	C259.647156,382.862366 264.534698,381.348541 268.312775,379.092133 
	C275.616089,374.730316 276.867310,366.958344 276.682098,359.189484 
	C314.040588,354.088013 331.460724,324.163086 331.922577,299.892883 
	C332.181000,286.310547 328.499817,273.899017 320.498749,262.892639 
	C309.722748,248.069107 294.849335,240.145126 276.848328,237.862961 
	C276.848328,223.048492 276.848328,208.640945 276.848328,193.756699 
	C278.750641,193.756699 280.376129,193.757080 282.001648,193.756638 
	C292.000275,193.753906 302.004150,193.953552 311.996155,193.694962 
	C323.513702,193.396881 332.193848,184.474808 331.960022,173.643875 
	C331.721405,162.588867 322.983643,154.152176 311.513245,154.049942 
	C302.015320,153.965286 292.515991,154.031876 283.017303,154.031509 
	C280.942230,154.031433 278.867157,154.031494 276.862061,154.031494 
	C275.625549,138.191025 269.032990,130.153290 257.596558,129.891022 
	C245.513565,129.613907 238.913666,137.220200 237.033066,153.877975 
	C213.669418,157.289291 196.498215,169.322723 186.454071,191.997223 
z"/>
<path fill="#FDFEFD" opacity="1.000000" stroke="none" 
	d="
M186.631012,191.654938 
	C196.498215,169.322723 213.669418,157.289291 237.033066,153.877975 
	C238.913666,137.220200 245.513565,129.613907 257.596558,129.891022 
	C269.032990,130.153290 275.625549,138.191025 276.862061,154.031494 
	C278.867157,154.031494 280.942230,154.031433 283.017303,154.031509 
	C292.515991,154.031876 302.015320,153.965286 311.513245,154.049942 
	C322.983643,154.152176 331.721405,162.588867 331.960022,173.643875 
	C332.193848,184.474808 323.513702,193.396881 311.996155,193.694962 
	C302.004150,193.953552 292.000275,193.753906 282.001648,193.756638 
	C280.376129,193.757080 278.750641,193.756699 276.848328,193.756699 
	C276.848328,208.640945 276.848328,223.048492 276.848328,237.862961 
	C294.849335,240.145126 309.722748,248.069107 320.498749,262.892639 
	C328.499817,273.899017 332.181000,286.310547 331.922577,299.892883 
	C331.460724,324.163086 314.040588,354.088013 276.682098,359.189484 
	C276.867310,366.958344 275.616089,374.730316 268.312775,379.092133 
	C264.534698,381.348541 259.647156,382.862366 255.285446,382.806091 
	C244.523163,382.667236 238.538330,374.458374 237.095520,358.927551 
	C225.715744,358.927551 214.271530,358.897522 202.827576,358.938934 
	C196.065979,358.963409 190.391876,356.570374 186.273849,351.200195 
	C181.660919,345.184540 180.541840,338.510162 183.858902,331.496246 
	C187.185379,324.462463 192.751404,320.173218 200.618942,319.989319 
	C212.590103,319.709534 224.572617,319.916107 237.145432,319.916107 
	C237.251480,317.708618 237.418335,315.801788 237.422394,313.894592 
	C237.446854,302.396240 237.416718,290.897705 237.448212,279.399384 
	C237.454498,277.109253 237.452560,275.482178 234.300476,274.942291 
	C194.870499,268.188995 172.919800,231.053650 185.956696,193.406860 
	C186.119720,192.936035 186.288147,192.467056 186.631012,191.654938 
M232.163223,234.671906 
	C233.725723,235.289383 235.288208,235.906860 237.119598,236.630615 
	C237.119598,222.199844 237.119598,208.529419 237.119598,194.355927 
	C228.200409,196.988525 223.259048,202.767410 221.612900,211.121353 
	C219.688232,220.888687 223.303116,228.642120 232.163223,234.671906 
M276.552002,308.486877 
	C276.552002,312.038910 276.552002,315.590942 276.552002,319.293518 
	C286.754517,317.036926 293.437469,307.713440 292.903809,297.519592 
	C292.389160,287.688629 285.160492,278.859161 276.551971,278.027161 
	C276.551971,287.871338 276.551971,297.680298 276.552002,308.486877 
z"/>
<path fill="#53B004" opacity="1.000000" stroke="none" 
	d="
M231.853363,234.448792 
	C223.303116,228.642120 219.688232,220.888687 221.612900,211.121353 
	C223.259048,202.767410 228.200409,196.988525 237.119598,194.355927 
	C237.119598,208.529419 237.119598,222.199844 237.119598,236.630615 
	C235.288208,235.906860 233.725723,235.289383 231.853363,234.448792 
z"/>
<path fill="#53B004" opacity="1.000000" stroke="none" 
	d="
M276.552002,307.988068 
	C276.551971,297.680298 276.551971,287.871338 276.551971,278.027161 
	C285.160492,278.859161 292.389160,287.688629 292.903809,297.519592 
	C293.437469,307.713440 286.754517,317.036926 276.552002,319.293518 
	C276.552002,315.590942 276.552002,312.038910 276.552002,307.988068 
z"/>
</svg>

<svg width="512" height="512" xmlns="http://www.w3.org/2000/svg" xml:space="preserve" enable-background="new 0 0 512 512" version="1.1">

 <g>
  <title>Layer 1</title>
  <path id="svg_2" d="m166.6552,494.31024c-14.62986,-7.24264 -29.19702,-13.78433 -43.12011,-21.48987c-14.59759,-8.07882 -27.2444,-18.92331 -39.58331,-30.20044c-24.97438,-22.82525 -44.08397,-49.80847 -58.16992,-80.36398c-10.08295,-21.87213 -17.26316,-44.76865 -19.72345,-68.81973c-1.59615,-15.60361 -3.44505,-31.38098 -2.76795,-46.97576c1.39186,-32.05726 8.31029,-63.02647 21.58091,-92.55995c10.21173,-22.72603 23.26592,-43.5434 39.33232,-62.3835c18.97883,-22.25533 41.46015,-40.46786 66.85632,-55.10576c26.5161,-15.2834 54.94496,-25.43554 85.04036,-30.03982c16.76323,-2.56461 34.00759,-3.73444 50.94101,-3.08373c38.9289,1.49594 75.99216,11.25452 110.37534,29.94418c15.34314,8.34009 29.62771,18.27739 43.07113,29.55675c18.24164,15.30512 33.9112,32.79798 47.20639,52.43951c19.79236,29.24009 32.86063,61.32191 39.16434,96.04861c3.34418,18.42262 5.06738,37.08992 4.04761,55.80818c-1.72052,31.58224 -8.2161,62.13132 -20.94339,91.27036c-9.28864,21.26632 -21.17786,40.93866 -35.81943,58.84304c-20.14282,24.63169 -44.07724,44.91501 -71.77392,60.74247c-24.79306,14.16821 -51.30015,23.6101 -79.27576,28.8233c-9.68332,1.80447 -19.61453,2.38339 -29.46024,3.1784c-7.75418,0.62613 -15.57904,1.3143 -23.32354,0.94593c-22.38216,-1.0647 -44.5631,-3.71799 -66.00034,-10.75144c-5.76543,-1.89163 -11.53882,-3.75891 -17.65437,-5.82675m19.79887,-302.31302c-0.16592,0.46984 -0.33435,0.93882 -0.49737,1.40964c-13.0369,37.64679 8.9138,74.78213 48.34378,81.53543c3.15208,0.53989 3.15402,2.16696 3.14773,4.45709c-0.03149,11.49832 -0.00136,22.99686 -0.02582,34.49521c-0.00405,1.9072 -0.17091,3.81403 -0.27696,6.02152c-12.57281,0 -24.55533,-0.20658 -36.52649,0.07321c-7.86754,0.1839 -13.43356,4.47314 -16.76004,11.50693c-3.31706,7.01391 -2.19798,13.68829 2.41495,19.70395c4.11803,5.37017 9.79213,7.76321 16.55373,7.73873c11.44395,-0.04141 22.88816,-0.01138 34.26794,-0.01138c1.44281,15.53082 7.42764,23.73969 18.18993,23.87854c4.36171,0.05628 9.24925,-1.45755 13.02732,-3.71396c7.30332,-4.36181 8.55454,-12.13379 8.36933,-19.90265c37.35849,-5.10147 54.77862,-35.02639 55.24048,-59.2966c0.25842,-13.58233 -3.42276,-25.99386 -11.42383,-37.00024c-10.776,-14.82353 -25.64942,-22.74751 -43.65042,-25.02968c0,-14.81447 0,-29.22202 0,-44.10626c1.90231,0 3.5278,0.00038 5.15332,-0.00006c9.99862,-0.00273 20.0025,0.19691 29.9945,-0.06168c11.51755,-0.29808 20.1977,-9.22015 19.96387,-20.05108c-0.23861,-11.05501 -8.97638,-19.4917 -20.44678,-19.59394c-9.49792,-0.08465 -18.99725,-0.01806 -28.49594,-0.01843c-2.07507,-0.00008 -4.15014,-0.00002 -6.15524,-0.00002c-1.23651,-15.84047 -7.82907,-23.8782 -19.2655,-24.14047c-12.083,-0.27711 -18.68289,7.32918 -20.56349,23.98695c-23.36365,3.41132 -40.53486,15.44475 -50.579,38.11925z" fill="#50AF00"/>
  <path id="svg_3" d="m186.63101,191.65494c9.8672,-22.33222 27.03841,-34.36565 50.40206,-37.77697c1.8806,-16.65777 8.48049,-24.26406 20.56349,-23.98695c11.43643,0.26227 18.02899,8.3 19.2655,24.14047c2.0051,0 4.08017,-0.00006 6.15524,0.00002c9.49869,0.00037 18.99802,-0.06622 28.49594,0.01843c11.4704,0.10224 20.20817,8.53893 20.44678,19.59394c0.23383,10.83093 -8.44632,19.753 -19.96387,20.05108c-9.992,0.25859 -19.99588,0.05895 -29.9945,0.06168c-1.62552,0.00044 -3.25101,0.00006 -5.15332,0.00006c0,14.88424 0,29.29179 0,44.10626c18.001,2.28217 32.87442,10.20615 43.65042,25.02968c8.00107,11.00638 11.68225,23.41791 11.42383,37.00024c-0.46186,24.27021 -17.88199,54.19513 -55.24048,59.2966c0.18521,7.76886 -1.06601,15.54084 -8.36933,19.90265c-3.77807,2.25641 -8.66561,3.77024 -13.02732,3.71396c-10.76229,-0.13885 -16.74712,-8.34772 -18.18993,-23.87854c-11.37978,0 -22.82399,-0.03003 -34.26794,0.01138c-6.7616,0.02448 -12.4357,-2.36856 -16.55373,-7.73873c-4.61293,-6.01566 -5.73201,-12.69004 -2.41495,-19.70395c3.32648,-7.03379 8.8925,-11.32303 16.76004,-11.50693c11.97116,-0.27979 23.95368,-0.07321 36.52649,-0.07321c0.10605,-2.20749 0.27291,-4.11432 0.27696,-6.02152c0.02446,-11.49835 -0.00567,-22.99689 0.02582,-34.49521c0.00629,-2.29013 0.00435,-3.9172 -3.14773,-4.45709c-39.42998,-6.7533 -61.38068,-43.88864 -48.34378,-81.53543c0.16302,-0.47082 0.33145,-0.9398 0.67431,-1.75192m45.53221,43.01697c1.5625,0.61747 3.12499,1.23495 4.95638,1.95871c0,-14.43078 0,-28.1012 0,-42.27469c-8.91919,2.6326 -13.86055,8.41148 -15.5067,16.76542c-1.92467,9.76734 1.69022,17.52077 10.55032,23.55056m44.38878,73.81497c0,3.55203 0,7.10406 0,10.80664c10.20252,-2.25659 16.88547,-11.58008 16.35181,-21.77393c-0.51465,-9.83096 -7.74332,-18.66043 -16.35184,-19.49243c0,9.84418 0,19.65314 0.00003,30.45972z" fill="#FDFEFD"/>
  <path id="svg_4" d="m231.85336,234.44879c-8.55024,-5.80667 -12.16513,-13.5601 -10.24046,-23.32744c1.64615,-8.35394 6.58751,-14.13282 15.5067,-16.76542c0,14.17349 0,27.84391 0,42.27469c-1.83139,-0.72376 -3.39388,-1.34124 -5.26624,-2.18183z" fill="#53B004"/>
  <path id="svg_5" d="m276.552,307.98807c-0.00003,-10.30777 -0.00003,-20.11673 -0.00003,-29.96091c8.60852,0.832 15.83719,9.66147 16.35184,19.49243c0.53366,10.19385 -6.14929,19.51734 -16.35181,21.77393c0,-3.70258 0,-7.25461 0,-11.30545z" fill="#53B004"/>
 </g>
</svg>
